assets/images/script/r-2-top.svg

<svg fill="none" height="153" viewBox="0 0 409 153" width="409" xmlns="http://www.w3.org/2000/svg"><path d="m103.234 139.358c.443 7.968 12.688 8.424 18.639 9.319 17.84 2.686 36.439.353 53.812-4.209 25.239-6.627 45.278-35.251 18.939-54.8053-19.477-14.4601-48.354-13.8401-71.323-13.6033-28.6397.2952-56.5698 3.6089-84.7017 8.643-11.2403 2.0114-43.46011 11.1981-33.89555 4.9603 20.84415-13.594 43.85595-24.203 66.81415-33.5949 42.2521-17.2848 86.3041-40.1175 131.2231-48.65969 20.485-3.89556 52.344-11.059 67.791 8.11689 5.126 6.3636 7.74 14.2933 10.222 21.9457 5.024 15.4917 15.374 39.2141 20.279 54.7473 5.44 17.226 8.147 23.039 4.071 41.518-6.375 28.899-55.402 14.133-36.3-12.852 30.231-42.7073 94.096-25.6457 137.461-9.877" stroke="#000" stroke-linecap="round" stroke-width="5"/></svg>

<svg width="409" height="153" viewBox="0 0 409 153" fill="none" xmlns="http://www.w3.org/2000/svg">
<path d="M103.234 139.358C103.677 147.326 115.922 147.782 121.873 148.677C139.713 151.363 158.312 149.03 175.685 144.468C200.924 137.841 220.963 109.217 194.624 89.6627C175.147 75.2026 146.27 75.8226 123.301 76.0594C94.6613 76.3546 66.7312 79.6683 38.5993 84.7024C27.359 86.7138 -4.86081 95.9005 4.70375 89.6627C25.5479 76.0687 48.5597 65.4597 71.5179 56.0678C113.77 38.783 157.822 15.9503 202.741 7.40811C223.226 3.51255 255.085 -3.65089 270.532 15.525C275.658 21.8886 278.272 29.8183 280.754 37.4707C285.778 52.9624 296.128 76.6848 301.033 92.218C306.473 109.444 309.18 115.257 305.104 133.736C298.729 162.635 249.702 147.869 268.804 120.884C299.035 78.1767 362.9 95.2383 406.265 111.007" stroke="black" stroke-width="5" stroke-linecap="round"/>
</svg>
